assets/images/afrikons/sad-outline.svg

<svg viewBox="0 0 50 50" xmlns="http://www.w3.org/2000/svg"><path d="m0 0h50v50h-50z" fill="none"/><path d="m25 4.41a20.59 20.59 0 1 0 20.59 20.59 20.62 20.62 0 0 0 -20.59-20.59zm-13.83 12.23a17.76 17.76 0 0 1 7.66-1.72v4.41a13.26 13.26 0 0 0 -5.76 1.3zm22.59 20.71a12.58 12.58 0 0 0 -17.52 0l-3.08-3.16a17 17 0 0 1 23.68 0zm3.17-16.72a13.26 13.26 0 0 0 -5.76-1.3v-4.41a17.76 17.76 0 0 1 7.66 1.72z" fill="none"/><path d="m42.68 7.32a25 25 0 0 0 -35.36 35.36 25 25 0 0 0 35.36-35.36zm-17.68 38.27a20.59 20.59 0 1 1 20.59-20.59 20.62 20.62 0 0 1 -20.59 20.59z"/><path d="m13.16 34.19 3.08 3.16a12.58 12.58 0 0 1 17.52 0l3.08-3.16a17 17 0 0 0 -23.68 0z"/><path d="m18.83 14.92a17.76 17.76 0 0 0 -7.66 1.72l1.9 4a13.26 13.26 0 0 1 5.76-1.3z"/><path d="m31.17 19.33a13.26 13.26 0 0 1 5.76 1.3l1.9-4a17.76 17.76 0 0 0 -7.66-1.72z"/></svg>

<svg xmlns="http://www.w3.org/2000/svg" viewBox="0 0 50 50"><defs><style>.cls-1{fill:none;}</style></defs><title>sad-outline</title><g id="Layer_2" data-name="Layer 2"><g id="Layer_1-2" data-name="Layer 1"><rect class="cls-1" width="50" height="50"/><path class="cls-1" d="M25,4.41A20.59,20.59,0,1,0,45.59,25,20.62,20.62,0,0,0,25,4.41ZM11.17,16.64a17.76,17.76,0,0,1,7.66-1.72v4.41a13.26,13.26,0,0,0-5.76,1.3ZM33.76,37.35a12.58,12.58,0,0,0-17.52,0l-3.08-3.16a17,17,0,0,1,23.68,0Zm3.17-16.72a13.26,13.26,0,0,0-5.76-1.3V14.92a17.76,17.76,0,0,1,7.66,1.72Z"/><path d="M42.68,7.32A25,25,0,0,0,7.32,42.68,25,25,0,0,0,42.68,7.32ZM25,45.59A20.59,20.59,0,1,1,45.59,25,20.62,20.62,0,0,1,25,45.59Z"/><path d="M13.16,34.19l3.08,3.16a12.58,12.58,0,0,1,17.52,0l3.08-3.16a17,17,0,0,0-23.68,0Z"/><path d="M18.83,14.92a17.76,17.76,0,0,0-7.66,1.72l1.9,4a13.26,13.26,0,0,1,5.76-1.3Z"/><path d="M31.17,19.33a13.26,13.26,0,0,1,5.76,1.3l1.9-4a17.76,17.76,0,0,0-7.66-1.72Z"/></g></g></svg>
